dist/images/svg_sprite/book_circle.svg

<svg width="60" height="65" viewBox="0 0 60 65" fill="none" xmlns="http://www.w3.org/2000/svg">
<path d="M55 6.47461C52.2397 6.4783 50.0029 8.8915 50 11.8701V54.2091L55 65L60 54.2091V11.8701C59.9966 8.8915 57.7598 6.4783 55 6.47461ZM54 50.2705L52.8447 49.0234L52 50.3938V21.5819H54V50.2705ZM52.1538 54.0321L53.1538 52.4134L55 54.4014L56.8447 52.4113L57.8447 54.03L55 60.1747L52.1538 54.0321ZM58 50.3938L57.1548 49.0265L56 50.2705V21.5819H58V50.3938ZM58 19.4237H52V17.2655H58V19.4237ZM52 15.1073V11.8701C52 10.0823 53.3428 8.63279 55 8.63279C56.6567 8.63279 58 10.0823 58 11.8701V15.1073H52Z" fill="#4054B2"/>
<path d="M40 0H0V58.2709H6V64.7455H46V6.47455H40V0ZM2 56.1128V2.15818H38V6.47455H6V56.1128H2ZM44 62.5873H8V8.63273H44V62.5873Z" fill="#4054B2"/>
<path d="M20 12.9492H12V21.5819H20V12.9492ZM18 19.4238H14V15.1074H18V19.4238Z" fill="#4054B2"/>
<path d="M20 24.8191H12V33.4518H20V24.8191ZM18 31.2936H14V26.9773H18V31.2936Z" fill="#4054B2"/>
<path d="M20 36.689H12V45.3217H20V36.689ZM18 43.1635H14V38.8472H18V43.1635Z" fill="#4054B2"/>
<path d="M20 49.6382H12V58.2709H20V49.6382ZM18 56.1127H14V51.7964H18V56.1127Z" fill="#4054B2"/>
<path d="M24.0002 14.0281H40.0002V16.1863H24.0002V14.0281Z" fill="#4054B2"/>
<path d="M24 18.3445H40V20.5027H24V18.3445Z" fill="#4054B2"/>
<path d="M24 25.8982H40V28.0564H24V25.8982Z" fill="#4054B2"/>
<path d="M24 30.2144H40V32.3725H24V30.2144Z" fill="#4054B2"/>
<path d="M24 37.7681H40V39.9262H24V37.7681Z" fill="#4054B2"/>
<path d="M24 42.0845H40V44.2427H24V42.0845Z" fill="#4054B2"/>
<path d="M24 50.717H40V52.8752H24V50.717Z" fill="#4054B2"/>
<path d="M24 55.0337H28V57.1919H24V55.0337Z" fill="#4054B2"/>
<path d="M34 55.0337H36V57.1919H34V55.0337Z" fill="#4054B2"/>
<path d="M30 55.0337H32V57.1919H30V55.0337Z" fill="#4054B2"/>
<path d="M38 55.0337H40V57.1919H38V55.0337Z" fill="#4054B2"/>
</svg>

<svg width="60" height="65" fill="none" xmlns="http://www.w3.org/2000/svg"><path d="M55 6.475c-2.76.003-4.997 2.417-5 5.395v42.34L55 65l5-10.79V11.87c-.003-2.978-2.24-5.392-5-5.395zM54 50.27l-1.155-1.248-.845 1.37V21.583h2V50.27zm-1.846 3.761l1-1.619L55 54.401l1.845-1.99 1 1.619L55 60.175l-2.846-6.143zM58 50.394l-.845-1.367L56 50.27V21.582h2v28.812zm0-30.97h-6v-2.159h6v2.159zm-6-4.317V11.87c0-1.788 1.343-3.237 3-3.237s3 1.45 3 3.237v3.237h-6zM40 0H0v58.27h6v6.476h40V6.475h-6V0zM2 56.113V2.158h36v4.317H6v49.638H2zm42 6.474H8V8.633h36v53.954z" fill="#4054B2"/><path d="M20 12.95h-8v8.632h8v-8.633zm-2 6.474h-4v-4.317h4v4.317zm2 5.396h-8v8.632h8v-8.633zm-2 6.474h-4v-4.317h4v4.317zm2 5.395h-8v8.633h8v-8.633zm-2 6.474h-4v-4.316h4v4.316zm2 6.475h-8v8.633h8v-8.633zm-2 6.475h-4v-4.317h4v4.317zm6-42.085h16v2.158H24v-2.158zm0 4.317h16v2.158H24v-2.159zm0 7.553h16v2.158H24v-2.158zm0 4.316h16v2.159H24v-2.159zm0 7.554h16v2.158H24v-2.158zm0 4.316h16v2.159H24v-2.159zm0 8.633h16v2.158H24v-2.158zm0 4.317h4v2.158h-4v-2.158zm10 0h2v2.158h-2v-2.158zm-4 0h2v2.158h-2v-2.158zm8 0h2v2.158h-2v-2.158z" fill="#4054B2"/></svg>
